icon-svg/rooms-computer.svg

<svg xmlns="http://www.w3.org/2000/svg" fill="#44739e" viewBox="0 0 24 24"><path d="M29 5c.55 0 1 .45 1 1v11H2V6c0-.55.45-1 1-1zM2 20v-1h28v1c0 .55-.45 1-1 1H17v4h2c.553 0 1 .447 1 1s-.447 1-1 1h-6c-.553 0-1-.447-1-1s.447-1 1-1h2v-4H3c-.55 0-1-.45-1-1"/></svg>

<?xml version="1.0" encoding="UTF-8"?>
<svg width="32px" height="32px" viewBox="0 0 32 32" fill="#44739e" version="1.1" xmlns="http://www.w3.org/2000/svg" xmlns:xlink="http://www.w3.org/1999/xlink">
            <path d="M29,5 C29.55,5 30,5.45 30,6 L30,17 L2,17 L2,6 C2,5.45 2.45,5 3,5 L29,5 Z M2,20 L2,19 L30,19 L30,20 C30,20.55 29.55,21 29,21 L17,21 L17,25 L19,25 C19.553,25 20,25.447 20,26 C20,26.553 19.553,27 19,27 L13,27 C12.447,27 12,26.553 12,26 C12,25.447 12.447,25 13,25 L15,25 L15,21 L3,21 C2.45,21 2,20.55 2,20 Z"></path>
</svg>
